src/modules/lobby/components/BecomeProvider/assets/api.svg

<svg width="64" height="64" viewBox="0 0 64 64" fill="none" xmlns="http://www.w3.org/2000/svg">
    <rect width="64" height="64" fill="#0F0F0F"/>
    <mask id="path-1-inside-1" fill="white">
        <path fill-rule="evenodd" clip-rule="evenodd" d="M28.9753 19L28.4404 21.7387C27.8552 21.9222 27.2927 22.1568 26.758 22.4374L24.4461 20.8747L20.8747 24.4461L22.4374 26.758C22.1568 27.2927 21.9222 27.8552 21.7387 28.4404L19 28.9753V34.0246L21.7341 34.5586C21.9174 35.1462 22.1522 35.7111 22.4333 36.2479L20.8747 38.5538L24.4461 42.1253L26.7467 40.5703C27.2856 40.8539 27.8529 41.0909 28.4433 41.2758L28.9753 43.9998H34.0246L34.5557 41.2803C35.1485 41.0956 35.7181 40.8585 36.2592 40.5743L38.5538 42.1253L42.1253 38.5538L40.5743 36.2592C40.8585 35.7181 41.0956 35.1485 41.2803 34.5557L43.9998 34.0246V28.9753L41.2758 28.4433C41.0909 27.8529 40.8539 27.2856 40.5703 26.7467L42.1253 24.4461L38.5538 20.8747L36.2479 22.4333C35.7111 22.1522 35.1462 21.9174 34.5586 21.7341L34.0246 19H28.9753Z"/>
    </mask>
    <path d="M28.4404 21.7387L29.0389 23.647L30.1751 23.2907L30.4033 22.122L28.4404 21.7387ZM28.9753 19V17H27.3282L27.0124 18.6166L28.9753 19ZM26.758 22.4374L25.638 24.0943L26.6285 24.7639L27.6872 24.2084L26.758 22.4374ZM24.4461 20.8747L25.5661 19.2177L24.1988 18.2935L23.0319 19.4605L24.4461 20.8747ZM20.8747 24.4461L19.4605 23.0319L18.2935 24.1988L19.2177 25.5661L20.8747 24.4461ZM22.4374 26.758L24.2084 27.6872L24.7639 26.6285L24.0943 25.638L22.4374 26.758ZM21.7387 28.4404L22.122 30.4033L23.2907 30.1751L23.647 29.0389L21.7387 28.4404ZM19 28.9753L18.6166 27.0124L17 27.3282V28.9753H19ZM19 34.0246H17V35.6717L18.6166 35.9875L19 34.0246ZM21.7341 34.5586L23.6434 33.963L23.2882 32.8243L22.1175 32.5957L21.7341 34.5586ZM22.4333 36.2479L24.0903 37.3679L24.7592 36.3783L24.2051 35.3202L22.4333 36.2479ZM20.8747 38.5538L19.2177 37.4338L18.2935 38.8011L19.4605 39.9681L20.8747 38.5538ZM24.4461 42.1253L23.0319 43.5395L24.1988 44.7064L25.5661 43.7823L24.4461 42.1253ZM26.7467 40.5703L27.6781 38.8004L26.6186 38.2428L25.6267 38.9133L26.7467 40.5703ZM28.4433 41.2758L30.4062 40.8924L30.1779 39.7233L29.0412 39.3673L28.4433 41.2758ZM28.9753 43.9998L27.0124 44.3832L27.3282 45.9998H28.9753V43.9998ZM34.0246 43.9998V45.9998H35.6717L35.9875 44.3832L34.0246 43.9998ZM34.5557 41.2803L33.9607 39.3709L32.8215 39.7259L32.5928 40.897L34.5557 41.2803ZM36.2592 40.5743L37.3792 38.9173L36.3882 38.2475L35.3293 38.8036L36.2592 40.5743ZM38.5538 42.1253L37.4338 43.7823L38.8011 44.7064L39.9681 43.5395L38.5538 42.1253ZM42.1253 38.5538L43.5395 39.9681L44.7064 38.8011L43.7823 37.4338L42.1253 38.5538ZM40.5743 36.2592L38.8036 35.3293L38.2475 36.3882L38.9173 37.3792L40.5743 36.2592ZM41.2803 34.5557L40.897 32.5928L39.7259 32.8215L39.3709 33.9607L41.2803 34.5557ZM43.9998 34.0246L44.3832 35.9875L45.9998 35.6717V34.0246H43.9998ZM43.9998 28.9753H45.9998V27.3282L44.3832 27.0124L43.9998 28.9753ZM41.2758 28.4433L39.3673 29.0412L39.7233 30.1779L40.8924 30.4062L41.2758 28.4433ZM40.5703 26.7467L38.9133 25.6267L38.2428 26.6186L38.8004 27.6781L40.5703 26.7467ZM42.1253 24.4461L43.7823 25.5661L44.7064 24.1988L43.5395 23.0319L42.1253 24.4461ZM38.5538 20.8747L39.9681 19.4605L38.8011 18.2935L37.4338 19.2177L38.5538 20.8747ZM36.2479 22.4333L35.3202 24.2051L36.3783 24.7592L37.3679 24.0903L36.2479 22.4333ZM34.5586 21.7341L32.5957 22.1175L32.8243 23.2882L33.963 23.6434L34.5586 21.7341ZM34.0246 19L35.9875 18.6166L35.6717 17H34.0246V19ZM30.4033 22.122L30.9382 19.3834L27.0124 18.6166L26.4775 21.3553L30.4033 22.122ZM27.6872 24.2084C28.1171 23.9828 28.569 23.7944 29.0389 23.647L27.842 19.8303C27.1415 20.05 26.4683 20.3308 25.8288 20.6663L27.6872 24.2084ZM23.3261 22.5317L25.638 24.0943L27.878 20.7804L25.5661 19.2177L23.3261 22.5317ZM22.2889 25.8603L25.8603 22.2889L23.0319 19.4605L19.4605 23.0319L22.2889 25.8603ZM24.0943 25.638L22.5317 23.3261L19.2177 25.5661L20.7804 27.878L24.0943 25.638ZM23.647 29.0389C23.7944 28.569 23.9828 28.1171 24.2084 27.6872L20.6663 25.8288C20.3308 26.4683 20.05 27.1415 19.8303 27.842L23.647 29.0389ZM19.3834 30.9382L22.122 30.4033L21.3553 26.4775L18.6166 27.0124L19.3834 30.9382ZM21 34.0246V28.9753H17V34.0246H21ZM22.1175 32.5957L19.3834 32.0617L18.6166 35.9875L21.3507 36.5215L22.1175 32.5957ZM24.2051 35.3202C23.9792 34.8886 23.7905 34.4348 23.6434 33.963L19.8248 35.1542C20.0443 35.8576 20.3253 36.5335 20.6615 37.1756L24.2051 35.3202ZM22.5317 39.6738L24.0903 37.3679L20.7763 35.1279L19.2177 37.4338L22.5317 39.6738ZM25.8603 40.7111L22.2889 37.1396L19.4605 39.9681L23.0319 43.5395L25.8603 40.7111ZM25.6267 38.9133L23.3261 40.4683L25.5661 43.7823L27.8667 42.2272L25.6267 38.9133ZM29.0412 39.3673C28.5672 39.2188 28.1114 39.0284 27.6781 38.8004L25.8152 42.3401C26.4598 42.6793 27.1387 42.9629 27.8454 43.1843L29.0412 39.3673ZM30.9382 43.6164L30.4062 40.8924L26.4804 41.6592L27.0124 44.3832L30.9382 43.6164ZM34.0246 41.9998H28.9753V45.9998H34.0246V41.9998ZM32.5928 40.897L32.0617 43.6164L35.9875 44.3832L36.5186 41.6637L32.5928 40.897ZM35.3293 38.8036C34.8943 39.0321 34.4366 39.2226 33.9607 39.3709L35.1508 43.1898C35.8604 42.9686 36.542 42.6848 37.1892 42.3449L35.3293 38.8036ZM39.6738 40.4683L37.3792 38.9173L35.1392 42.2313L37.4338 43.7823L39.6738 40.4683ZM40.7111 37.1396L37.1396 40.7111L39.9681 43.5395L43.5395 39.9681L40.7111 37.1396ZM38.9173 37.3792L40.4683 39.6738L43.7823 37.4338L42.2313 35.1392L38.9173 37.3792ZM39.3709 33.9607C39.2226 34.4366 39.0321 34.8943 38.8036 35.3293L42.3449 37.1892C42.6848 36.542 42.9686 35.8604 43.1898 35.1508L39.3709 33.9607ZM43.6164 32.0617L40.897 32.5928L41.6637 36.5186L44.3832 35.9875L43.6164 32.0617ZM41.9998 28.9753V34.0246H45.9998V28.9753H41.9998ZM40.8924 30.4062L43.6164 30.9382L44.3832 27.0124L41.6592 26.4804L40.8924 30.4062ZM38.8004 27.6781C39.0284 28.1114 39.2188 28.5672 39.3673 29.0412L43.1843 27.8454C42.9629 27.1387 42.6793 26.4598 42.3401 25.8152L38.8004 27.6781ZM40.4683 23.3261L38.9133 25.6267L42.2272 27.8667L43.7823 25.5661L40.4683 23.3261ZM37.1396 22.2889L40.7111 25.8603L43.5395 23.0319L39.9681 19.4605L37.1396 22.2889ZM37.3679 24.0903L39.6738 22.5317L37.4338 19.2177L35.1279 20.7763L37.3679 24.0903ZM33.963 23.6434C34.4348 23.7905 34.8886 23.9792 35.3202 24.2051L37.1756 20.6615C36.5335 20.3253 35.8576 20.0443 35.1542 19.8248L33.963 23.6434ZM32.0617 19.3834L32.5957 22.1175L36.5215 21.3507L35.9875 18.6166L32.0617 19.3834ZM28.9753 21H34.0246V17H28.9753V21Z" fill="#006DFF" mask="url(#path-1-inside-1)"/>
    <path opacity="0.4" d="M8.85986 36.5C8.61073 35.1459 8.5 33.7377 8.5 32.3295C8.5 21.9303 15.1436 13.0476 24.5 9.5" stroke="url(#paint0_linear)" stroke-width="3"/>
    <path opacity="0.4" d="M39.5001 9.49997C40.8012 9.95031 42.0811 10.5478 43.3066 11.2416C52.356 16.3652 56.8124 26.523 55.2897 36.4128" stroke="url(#paint1_linear)" stroke-width="3"/>
    <path opacity="0.4" d="M45.6823 51.5095C44.5393 52.2772 43.2916 52.9394 41.9998 53.5C32.4603 57.6402 21.667 55.0823 14.6876 47.9118" stroke="url(#paint2_linear)" stroke-width="3"/>
    <path d="M31.5 7.49994L22.7207 5.40796L25.2994 14.0393L31.5 7.49994Z" fill="#006DFF"/>
    <path d="M59.7793 36.0505L51 33.9585L53.5787 42.5899L59.7793 36.0505Z" fill="#006DFF"/>
    <path d="M18.7793 45.0505L10 42.9585L12.5787 51.5899L18.7793 45.0505Z" fill="#006DFF"/>
    <circle cx="31.5" cy="31.5" r="3.5" fill="#006DFF"/>
    <defs>
        <linearGradient id="paint0_linear" x1="16.5" y1="9.5" x2="16.5" y2="36.5" gradientUnits="userSpaceOnUse">
            <stop stop-color="#006DFF"/>
            <stop offset="1" stop-color="#006DFF" stop-opacity="0"/>
        </linearGradient>
        <linearGradient id="paint1_linear" x1="59.2313" y1="29.4512" x2="35.7358" y2="16.1484" gradientUnits="userSpaceOnUse">
            <stop stop-color="#006DFF"/>
            <stop offset="1" stop-color="#006DFF" stop-opacity="0"/>
        </linearGradient>
        <linearGradient id="paint2_linear" x1="12.5" y1="45.5" x2="46" y2="55.5" gradientUnits="userSpaceOnUse">
            <stop stop-color="#006DFF"/>
            <stop offset="1" stop-color="#006DFF" stop-opacity="0"/>
        </linearGradient>
    </defs>
</svg>

<svg xmlns="http://www.w3.org/2000/svg" fill="none" viewBox="0 0 64 64">
  <g clip-path="url(#clip0)">
    <mask id="a" fill="#fff">
      <path fill-rule="evenodd" d="M28.975 19l-.535 2.739c-.585.183-1.147.418-1.682.698l-2.312-1.562-3.571 3.571 1.562 2.312c-.28.535-.515 1.097-.698 1.682L19 28.975v5.05l2.734.534c.183.587.418 1.152.7 1.689l-1.56 2.306 3.572 3.571 2.3-1.555c.54.284 1.107.52 1.697.706L28.975 44h5.05l.53-2.72a10.167 10.167 0 001.704-.706l2.295 1.551 3.571-3.571-1.55-2.295c.283-.54.52-1.11.705-1.703l2.72-.531v-5.05l-2.724-.532a10.168 10.168 0 00-.706-1.696l1.555-2.3-3.571-3.572-2.306 1.558a10.169 10.169 0 00-1.69-.699L34.026 19h-5.05z" clip-rule="evenodd"/>
    </mask>
    <path fill="#006DFF" d="M28.44 21.739l.599 1.908 1.136-.356.228-1.169-1.963-.383zM28.975 19v-2h-1.647l-.316 1.617 1.963.383zm-2.217 3.437l-1.12 1.657.99.67 1.06-.556-.93-1.77zm-2.312-1.562l1.12-1.657-1.367-.924-1.167 1.166 1.414 1.415zm-3.571 3.571l-1.415-1.414-1.166 1.167.924 1.367 1.657-1.12zm1.562 2.312l1.771.93.556-1.06-.67-.99-1.657 1.12zm-.698 1.682l.383 1.963 1.169-.228.356-1.136-1.908-.599zM19 28.975l-.383-1.963-1.617.316v1.647h2zm0 5.05h-2v1.647l1.617.316.383-1.963zm2.734.534l1.91-.596-.356-1.139-1.17-.228-.384 1.963zm.7 1.689l1.656 1.12.67-.99-.555-1.058-1.772.928zm-1.56 2.306l-1.656-1.12-.924 1.367 1.166 1.167 1.415-1.414zm3.572 3.571l-1.414 1.414 1.167 1.167 1.367-.924-1.12-1.657zm2.3-1.555l.932-1.77-1.06-.557-.991.67 1.12 1.657zm1.697.706l1.963-.384-.228-1.169-1.137-.356-.598 1.909zM28.975 44l-1.963.383.316 1.617h1.647v-2zm5.05 0v2h1.647l.316-1.617L34.024 44zm.53-2.72l-.594-1.91-1.14.356-.228 1.171 1.963.383zm1.704-.706l1.12-1.657-.99-.67-1.06.557.93 1.77zm2.295 1.551l-1.12 1.657 1.367.924 1.167-1.167-1.414-1.414zm3.571-3.571l1.414 1.414 1.167-1.167-.924-1.367-1.657 1.12zm-1.55-2.295l-1.771-.93-.556 1.06.67.99 1.656-1.12zm.705-1.703l-.383-1.963-1.171.228-.355 1.14 1.91.595zm2.72-.531l.383 1.962L46 35.672v-1.647h-2zm0-5.05h2v-1.647l-1.617-.316L44 28.975zm-2.724-.532l-1.909.598.356 1.137 1.17.228.383-1.963zm-.706-1.696l-1.657-1.12-.67.992.557 1.06 1.77-.932zm1.555-2.3l1.657 1.12.924-1.368-1.167-1.167-1.414 1.414zm-3.571-3.572l1.414-1.415-1.167-1.166-1.367.924 1.12 1.657zm-2.306 1.558l-.928 1.772 1.058.554.99-.669-1.12-1.657zm-1.69-.699l-1.962.383.228 1.171 1.139.355.596-1.909zM34.026 19l1.962-.383L35.672 17h-1.647v2zm-3.622 3.122l.535-2.739-3.926-.766-.535 2.738 3.926.767zm-2.716 2.086c.43-.225.882-.414 1.352-.561l-1.197-3.817c-.7.22-1.374.5-2.013.836l1.858 3.542zm-4.36-1.676l2.311 1.562 2.24-3.314-2.312-1.562-2.24 3.314zm-1.038 3.328l3.571-3.571-2.828-2.829-3.572 3.572 2.829 2.828zm1.805-.222l-1.562-2.312-3.314 2.24 1.562 2.312 3.314-2.24zm-.447 3.4c.147-.469.336-.92.561-1.35l-3.542-1.86c-.335.64-.616 1.314-.836 2.014l3.817 1.197zm-4.264 1.9l2.739-.535-.767-3.925-2.738.534.766 3.926zM21 34.025v-5.05h-4v5.05h4zm1.117-1.43l-2.734-.533-.766 3.925 2.734.535.767-3.926zm2.088 2.725a8.172 8.172 0 01-.562-1.357l-3.818 1.191c.22.704.5 1.38.837 2.022l3.543-1.856zm-1.673 4.354l1.558-2.306-3.314-2.24-1.558 2.306 3.314 2.24zm3.328 1.037L22.29 37.14l-2.829 2.828 3.572 3.571 2.828-2.828zm-.233-1.798l-2.3 1.555 2.24 3.314 2.3-1.555-2.24-3.314zm3.414.454a8.176 8.176 0 01-1.363-.567l-1.863 3.54c.645.34 1.324.623 2.03.844l1.196-3.817zm1.897 4.25l-.532-2.725-3.926.767.532 2.724 3.926-.767zM34.025 42h-5.05v4h5.05v-4zm-1.432-1.103l-.531 2.72 3.925.766.532-2.72-3.926-.766zm2.736-2.093a8.169 8.169 0 01-1.368.567l1.19 3.819c.71-.221 1.391-.505 2.038-.845l-1.86-3.541zm4.345 1.664l-2.295-1.55-2.24 3.313 2.295 1.551 2.24-3.314zm1.037-3.328L37.14 40.71l2.828 2.828 3.571-3.57-2.828-2.83zm-1.794.24l1.551 2.294 3.314-2.24-1.55-2.295-3.315 2.24zm.454-3.42a8.169 8.169 0 01-.567 1.37l3.54 1.86c.34-.648.625-1.33.846-2.04l-3.82-1.19zm4.245-1.898l-2.719.53.767 3.927 2.72-.532-.768-3.925zM42 28.975v5.05h4v-5.05h-4zm-1.108 1.431l2.724.532.767-3.926-2.724-.532-.767 3.926zM38.8 27.678c.228.433.419.89.567 1.363l3.817-1.196a12.176 12.176 0 00-.844-2.03l-3.54 1.863zm1.668-4.352l-1.555 2.3 3.314 2.24 1.555-2.3-3.314-2.24zM37.14 22.29l3.571 3.571 2.828-2.828-3.57-3.572-2.83 2.829zm.228 1.801l2.306-1.558-2.24-3.314-2.306 1.558 2.24 3.314zm-3.405-.447c.472.148.926.336 1.357.562l1.856-3.543a12.178 12.178 0 00-2.022-.837l-1.191 3.818zm-1.901-4.26l.534 2.735 3.926-.767-.535-2.734-3.925.766zM28.975 21h5.05v-4h-5.05v4z" mask="url(#a)"/>
    <path stroke="url(#paint0_linear)" stroke-width="3" d="M8.86 36.5a23.146 23.146 0 01-.36-4.17c0-10.4 6.644-19.282 16-22.83" opacity=".4"/>
    <path stroke="url(#paint1_linear)" stroke-width="3" d="M39.5 9.5a23.151 23.151 0 013.806 1.742c9.05 5.123 13.506 15.281 11.984 25.17" opacity=".4"/>
    <path stroke="url(#paint2_linear)" stroke-width="3" d="M45.682 51.51A23.139 23.139 0 0142 53.5c-9.54 4.14-20.333 1.582-27.312-5.588" opacity=".4"/>
    <path fill="#006DFF" d="M31.5 7.5l-8.78-2.092 2.58 8.631 6.2-6.54zM59.78 36.05L51 33.96l2.579 8.63 6.2-6.538zM18.78 45.05L10 42.96l2.579 8.63 6.2-6.538z"/>
    <circle cx="31.5" cy="31.5" r="3.5" fill="#006DFF"/>
  </g>
  <defs>
    <linearGradient id="paint0_linear" x1="16.5" x2="16.5" y1="9.5" y2="36.5" gradientUnits="userSpaceOnUse">
      <stop stop-color="#006DFF"/>
      <stop offset="1" stop-color="#006DFF" stop-opacity="0"/>
    </linearGradient>
    <linearGradient id="paint1_linear" x1="59.231" x2="35.736" y1="29.451" y2="16.148" gradientUnits="userSpaceOnUse">
      <stop stop-color="#006DFF"/>
      <stop offset="1" stop-color="#006DFF" stop-opacity="0"/>
    </linearGradient>
    <linearGradient id="paint2_linear" x1="12.5" x2="46" y1="45.5" y2="55.5" gradientUnits="userSpaceOnUse">
      <stop stop-color="#006DFF"/>
      <stop offset="1" stop-color="#006DFF" stop-opacity="0"/>
    </linearGradient>
    <clipPath id="clip0">
      <path fill="#fff" d="M0 0h64v64H0z"/>
    </clipPath>
  </defs>
</svg>
